Obsidian-SemiLight/actions/24s/im-gadugadu.svg

<svg viewBox="0 0 24 24" xmlns="http://www.w3.org/2000/svg"><path d="m11 4v2.0898438c-.913243.1522825-1.7540369.5060131-2.4765625 1.0195312l-1.4726563-1.4726562-1.4140624 1.4140624 1.4726562 1.4726563c-.5135181.7225256-.8672486 1.5633195-1.0195312 2.4765625h-2.0898438v2h2.0898438c.1522826.913243.5060131 1.754038 1.0195312 2.476562l-1.4726562 1.472657 1.4140624 1.414062 1.4726563-1.472656c.7225256.513518 1.5633195.867249 2.4765625 1.019531v2.089844h2v-2.089844c.913243-.152282 1.754038-.506013 2.476562-1.019531l1.472657 1.472656 1.414062-1.414062-1.472656-1.472657c.513518-.722523.867249-1.563319 1.019531-2.476562h2.089844v-2h-2.089844c-.152282-.913243-.506013-1.7540369-1.019531-2.4765625l1.472656-1.4726563-1.414062-1.4140624-1.472657 1.4726562c-.722523-.5135181-1.563319-.8672486-2.476562-1.0195312v-2.0898438zm1 3c1.363958 0 2.593808.5442179 3.494141 1.4238281l.082031.0820313c.879611.9003329 1.423828 2.1301826 1.423828 3.4941406s-.544218 2.593808-1.423828 3.494141l-.082031.082031c-.900334.879611-2.130183 1.423828-3.494141 1.423828s-2.593808-.544218-3.4941406-1.423828l-.0820313-.082031c-.8796105-.900334-1.4238281-2.130183-1.4238281-3.494141s.5442179-2.593808 1.4238281-3.4941406l.0820313-.0820313c.9003329-.8796105 2.1301826-1.4238281 3.4941406-1.4238281zm-2 3c-.554 0-1 .446-1 1s.446 1 1 1 1-.446 1-1-.446-1-1-1zm4 0c-.554 0-1 .446-1 1s.446 1 1 1 1-.446 1-1-.446-1-1-1zm-4.9082031 2.726562-.9667969.242188a4 4 0 0 0 3.875 3.03125 4 4 0 0 0 3.876953-3.03125l-.970703-.242188a3 3 0 0 1 -2.90625 2.273438 3 3 0 0 1 -2.9082031-2.273438z" fill="#4d4d4d"/></svg>

<svg xmlns="http://www.w3.org/2000/svg" viewBox="0 0 24 24">
  <defs id="defs3051">
    <style type="text/css" id="current-color-scheme">
      .ColorScheme-Text {
        color:#4d4d4d;
      }
      </style>
  </defs>
 <path style="fill:currentColor;fill-opacity:1;stroke:none" 
     d="M 11 4 L 11 6.0898438 C 10.086757 6.2421263 9.2459631 6.5958569 8.5234375 7.109375 L 7.0507812 5.6367188 L 5.6367188 7.0507812 L 7.109375 8.5234375 C 6.5958569 9.2459631 6.2421264 10.086757 6.0898438 11 L 4 11 L 4 13 L 6.0898438 13 C 6.2421264 13.913243 6.5958569 14.754038 7.109375 15.476562 L 5.6367188 16.949219 L 7.0507812 18.363281 L 8.5234375 16.890625 C 9.2459631 17.404143 10.086757 17.757874 11 17.910156 L 11 20 L 13 20 L 13 17.910156 C 13.913243 17.757874 14.754038 17.404143 15.476562 16.890625 L 16.949219 18.363281 L 18.363281 16.949219 L 16.890625 15.476562 C 17.404143 14.754039 17.757874 13.913243 17.910156 13 L 20 13 L 20 11 L 17.910156 11 C 17.757874 10.086757 17.404143 9.2459631 16.890625 8.5234375 L 18.363281 7.0507812 L 16.949219 5.6367188 L 15.476562 7.109375 C 14.754039 6.5958569 13.913243 6.2421264 13 6.0898438 L 13 4 L 11 4 z M 12 7 C 13.363958 7 14.593808 7.5442179 15.494141 8.4238281 L 15.576172 8.5058594 C 16.455783 9.4061923 17 10.636042 17 12 C 17 13.363958 16.455782 14.593808 15.576172 15.494141 L 15.494141 15.576172 C 14.593807 16.455783 13.363958 17 12 17 C 10.636042 17 9.406192 16.455782 8.5058594 15.576172 L 8.4238281 15.494141 C 7.5442176 14.593807 7 13.363958 7 12 C 7 10.636042 7.5442179 9.406192 8.4238281 8.5058594 L 8.5058594 8.4238281 C 9.4061923 7.5442176 10.636042 7 12 7 z M 10 10 C 9.446 10 9 10.446 9 11 C 9 11.554 9.446 12 10 12 C 10.554 12 11 11.554 11 11 C 11 10.446 10.554 10 10 10 z M 14 10 C 13.446 10 13 10.446 13 11 C 13 11.554 13.446 12 14 12 C 14.554 12 15 11.554 15 11 C 15 10.446 14.554 10 14 10 z M 9.0917969 12.726562 L 8.125 12.96875 A 4 4 0 0 0 12 16 A 4 4 0 0 0 15.876953 12.96875 L 14.90625 12.726562 A 3 3 0 0 1 12 15 A 3 3 0 0 1 9.0917969 12.726562 z "
     class="ColorScheme-Text"
     />
</svg>
